src/assets/homepage/skills/item3.svg

<svg width="42" height="38" viewBox="0 0 42 38" fill="none" xmlns="http://www.w3.org/2000/svg">
<g id="Black">
<path id="Vector" d="M7.37214 1.21374C5.40202 2.07705 4.02958 4.3128 4.25094 6.37146C4.38376 7.56682 5.13639 9.20489 5.66766 9.40412C6.61951 9.78043 7.0401 8.7843 6.37601 7.6775C5.49057 6.17224 6.04397 3.91435 7.50496 3.05104C8.61177 2.38695 9.58576 2.36482 10.9139 2.96249C12.0207 3.47163 12.1757 3.49376 12.4856 3.20599C12.9283 2.76327 12.9062 2.38695 12.4192 1.94423C11.3345 0.970241 8.81099 0.593926 7.37214 1.21374Z" fill="#3B4AE2"/>
<path id="Vector_2" d="M31.1906 1.25795C30.1945 1.67853 29.6411 2.2098 29.6411 2.6968C29.6411 3.44942 30.2831 3.53797 31.567 2.96243C32.9837 2.29834 34.1569 2.40903 35.1973 3.27234C36.5476 4.42342 36.9239 6.30499 36.0606 7.7217C35.5072 8.62929 35.5072 9.02774 36.0827 9.33764C36.7468 9.69182 37.5437 8.87278 37.9643 7.38966C38.7169 4.75546 37.3002 2.01057 34.7546 1.14726C33.7142 0.815222 32.1204 0.859494 31.1906 1.25795Z" fill="#3B4AE2"/>
<path id="Vector_3" d="M18.9053 1.92208C12.1537 3.02888 6.70825 7.89884 5.04803 14.3847C4.73813 15.5801 4.60531 16.7754 4.62745 18.5021C4.62745 21.1805 4.84881 22.4644 5.38008 23.0178C5.93348 23.5712 6.53116 23.0621 6.44261 22.1324C6.42048 21.7118 6.35407 20.0737 6.33193 18.5021C6.3098 15.8014 6.33193 15.5137 6.97388 13.7206C8.58982 9.1606 12.2423 5.57454 16.6917 4.15783C17.9977 3.75938 18.7503 3.67084 21.3402 3.67084C24.1294 3.67084 24.5943 3.73724 26.0552 4.26851C28.4017 5.10968 29.9733 6.10581 31.7442 7.8767C33.5594 9.69187 34.7326 11.6177 35.5517 14.0748C36.3486 16.5541 36.3928 20.1623 35.6402 22.5972C34.2678 27.0688 31.0137 30.7876 27.0956 32.4257C24.7271 33.4218 23.9744 33.4882 13.6147 33.5768C8.1471 33.6432 3.58705 33.7317 3.4985 33.7981C3.21073 33.9752 3.25501 34.6393 3.56491 34.9492C3.9855 35.3698 22.2921 35.3255 24.4172 34.8828C31.0359 33.5104 36.1051 28.4633 37.5439 21.8225C38.0309 19.5646 37.8317 15.7129 37.1012 13.4772C34.9318 6.74776 28.8887 2.1213 21.9158 1.89994C20.6319 1.85567 19.2816 1.87781 18.9053 1.92208Z" fill="#3B4AE2"/>
<path id="Vector_4" d="M19.6354 4.68905C14.367 5.26459 10.0284 8.69569 8.10251 13.8313C7.48269 15.4694 7.41628 15.8678 7.41628 18.3913C7.39415 20.5385 7.48269 21.424 7.81474 22.3758C9.49708 27.3122 13.1938 30.854 17.8867 32.0272C20.056 32.5585 23.7306 32.3814 25.8778 31.6066C29.0654 30.4777 31.9431 27.9984 33.4927 25.0322C34.688 22.7522 35.0422 21.269 35.0422 18.502C35.0422 15.735 34.688 14.274 33.4927 11.9497C31.5226 8.18656 27.3167 5.22032 23.3322 4.77759C22.7345 4.71119 21.9819 4.62264 21.672 4.57837C21.3621 4.55623 20.4545 4.6005 19.6354 4.68905ZM23.9963 6.54849C26.2984 7.14616 28.0693 8.14229 29.7738 9.84677C32.2752 12.326 33.4041 15.0488 33.4041 18.502C33.4041 21.9553 32.2752 24.678 29.7738 27.1573C27.1617 29.7472 23.8634 30.9868 20.3438 30.7212C17.1562 30.4777 14.4777 29.1495 12.1756 26.6924C6.68579 20.8042 8.45668 11.1971 15.7616 7.52248C18.2409 6.26072 21.4063 5.8844 23.9963 6.54849Z" fill="#3B4AE2"/>
<path id="Vector_5" d="M20.3661 7.30122C20.2332 7.54472 20.1226 8.62939 20.1226 9.7362C20.1226 11.7506 20.3661 12.4147 21.0965 12.4147C21.7606 12.4147 21.9156 11.7949 21.8492 9.40416L21.7828 6.99131L21.1851 6.92491C20.7866 6.88063 20.521 6.99131 20.3661 7.30122Z" fill="#3B4AE2"/>
<path id="Vector_6" d="M15.2526 11.4184C15.0976 11.5955 15.0312 11.9054 15.1197 12.0825C15.1861 12.2817 16.3151 13.8091 17.599 15.5136L19.9454 18.5905L19.2592 19.1882C18.4844 19.8302 18.418 20.4943 19.06 20.8927C19.3256 21.0698 19.5912 21.0034 20.1889 20.5385L20.9637 19.9409L21.5392 20.6049C22.1369 21.3354 23.0888 21.4904 23.3101 20.8927C23.3987 20.6935 23.2216 20.2065 22.9117 19.7195L22.3583 18.8783L24.7711 17.041C27.2504 15.1373 27.4938 14.8717 27.2946 14.2961C26.9626 13.455 26.3206 13.6985 23.8635 15.6243C22.5353 16.6647 21.34 17.4616 21.2515 17.3952C21.1408 17.3509 19.9897 15.8899 18.6837 14.1855C16.3151 11.1085 15.8281 10.7101 15.2526 11.4184Z" fill="#3B4AE2"/>
<path id="Vector_7" d="M9.74084 18.0372C9.58588 18.2143 9.51947 18.5685 9.60802 18.8341C9.74084 19.2547 9.91792 19.2769 12.2865 19.2769C14.4337 19.2769 14.8543 19.2104 14.965 18.9227C15.0314 18.7235 15.0092 18.3914 14.8764 18.1922C14.5444 17.6831 10.1393 17.5502 9.74084 18.0372Z" fill="#3B4AE2"/>
<path id="Vector_8" d="M27.6931 17.9265C27.516 18.0151 27.4275 18.3471 27.4717 18.6349C27.5381 19.1661 27.5603 19.1661 30.0617 19.1661C32.1646 19.1661 32.6295 19.0997 32.8065 18.7898C32.9836 18.5242 32.9615 18.325 32.7623 18.0815C32.5188 17.7937 32.0096 17.7273 30.2166 17.7273C28.9991 17.7273 27.848 17.8158 27.6931 17.9265Z" fill="#3B4AE2"/>
<path id="Vector_9" d="M20.3661 24.5673C20.2332 24.8108 20.1226 25.984 20.1226 27.1794C20.1226 29.6143 20.3439 30.212 21.2515 30.0792L21.7828 30.0128V27.1351V24.2574L21.1851 24.191C20.7866 24.1467 20.521 24.2574 20.3661 24.5673Z" fill="#3B4AE2"/>
<path id="Vector_10" d="M1.15199 25.1651C1.08558 25.3643 1.10771 25.6964 1.24053 25.8956C1.43976 26.1833 1.94889 26.2498 4.406 26.2498C6.86311 26.2498 7.37225 26.1833 7.57147 25.8956C7.70429 25.6964 7.72642 25.3643 7.66002 25.1651C7.54933 24.8552 7.08448 24.8109 4.406 24.8109C1.72753 24.8109 1.26267 24.8552 1.15199 25.1651Z" fill="#3B4AE2"/>
<path id="Vector_11" d="M0.0673054 29.548C0.000896919 29.7251 -0.0212392 30.0571 0.0230331 30.2785C0.0894416 30.6548 0.465756 30.6769 5.07008 30.7433C9.49731 30.7876 10.0728 30.7655 10.3163 30.4334C10.5156 30.1678 10.5156 29.9464 10.3606 29.6587C10.1614 29.2602 9.78508 29.2381 5.15862 29.2381C1.0413 29.2381 0.15585 29.2823 0.0673054 29.548Z" fill="#3B4AE2"/>
<path id="Vector_12" d="M36.8578 31.2082C36.3708 31.7616 36.5922 32.2265 37.6547 32.8242L38.5402 33.3333L34.3786 33.444L30.1948 33.5547V34.2188V34.8828L34.4007 34.9935L38.6066 35.1042L37.7654 35.6133C36.7693 36.2553 36.4594 36.7423 36.7471 37.2735C37.1013 37.8934 37.6104 37.7163 39.8905 36.1889C41.6614 35.0157 42.0598 34.6615 41.9934 34.263C41.9491 33.931 41.2408 33.3112 39.7134 32.2708C38.518 31.4517 37.4555 30.7877 37.3891 30.7877C37.3005 30.7877 37.0792 30.9647 36.8578 31.2082Z" fill="#3B4AE2"/>
</g>
</svg>

<svg width="42" height="38" fill="none" xmlns="http://www.w3.org/2000/svg"><g fill="#3B4AE2"><path d="M7.372 1.214c-1.97.863-3.342 3.099-3.121 5.157.133 1.196.885 2.834 1.417 3.033.952.376 1.372-.62.708-1.726-.885-1.506-.332-3.764 1.129-4.627 1.107-.664 2.08-.686 3.409-.089 1.107.51 1.262.532 1.572.244.442-.443.42-.819-.067-1.262-1.085-.974-3.608-1.35-5.047-.73ZM31.19 1.258c-.995.42-1.549.952-1.549 1.439 0 .752.642.841 1.926.265 1.417-.664 2.59-.553 3.63.31 1.35 1.151 1.727 3.033.864 4.45-.554.907-.554 1.306.022 1.616.664.354 1.46-.465 1.881-1.948.753-2.635-.664-5.38-3.21-6.243-1.04-.332-2.634-.288-3.563.11Z"/><path d="M18.905 1.922C12.154 3.03 6.708 7.9 5.048 14.385c-.31 1.195-.443 2.39-.42 4.117 0 2.678.22 3.962.752 4.516.553.553 1.151.044 1.063-.886-.023-.42-.089-2.058-.111-3.63-.022-2.7 0-2.988.642-4.781 1.616-4.56 5.268-8.146 9.718-9.563 1.306-.399 2.058-.487 4.648-.487 2.79 0 3.254.066 4.715.598 2.347.84 3.918 1.837 5.69 3.608 1.814 1.815 2.988 3.74 3.807 6.198.797 2.48.84 6.087.088 8.522-1.372 4.472-4.626 8.19-8.544 9.829-2.369.996-3.122 1.062-13.481 1.15-5.468.067-10.028.156-10.117.222-.287.177-.243.841.067 1.151.42.42 18.727.377 20.852-.066 6.619-1.373 11.688-6.42 13.127-13.06.487-2.258.288-6.11-.443-8.346C34.931 6.747 28.89 2.121 21.916 1.9c-1.284-.044-2.634-.022-3.01.022Z"/><path d="M19.635 4.689c-5.268.576-9.607 4.007-11.532 9.142-.62 1.638-.687 2.037-.687 4.56-.022 2.148.067 3.033.399 3.985 1.682 4.936 5.379 8.478 10.072 9.651 2.169.532 5.844.354 7.99-.42 3.188-1.13 6.066-3.609 7.616-6.575 1.195-2.28 1.55-3.763 1.55-6.53 0-2.767-.355-4.228-1.55-6.552-1.97-3.763-6.176-6.73-10.16-7.172a74.403 74.403 0 0 1-1.661-.2c-.31-.022-1.218.022-2.037.111Zm4.361 1.86c2.302.597 4.073 1.593 5.778 3.298 2.501 2.479 3.63 5.202 3.63 8.655 0 3.453-1.129 6.176-3.63 8.655-2.612 2.59-5.91 3.83-9.43 3.564-3.188-.243-5.866-1.572-8.168-4.029-5.49-5.888-3.72-15.495 3.586-19.17 2.479-1.261 5.644-1.638 8.234-.974Z"/><path d="M20.366 7.301c-.133.244-.243 1.328-.243 2.435 0 2.015.243 2.679.973 2.679.665 0 .82-.62.753-3.01l-.066-2.414-.598-.066c-.398-.044-.664.066-.819.376Z"/><path d="M15.253 11.418c-.155.178-.222.487-.133.665.066.199 1.195 1.726 2.479 3.43l2.346 3.077-.686.598c-.775.642-.841 1.306-.199 1.705.266.177.531.11 1.129-.355l.775-.597.575.664c.598.73 1.55.885 1.771.288.089-.2-.088-.687-.398-1.174l-.554-.84 2.413-1.838c2.48-1.904 2.723-2.17 2.524-2.745-.332-.841-.974-.598-3.432 1.328-1.328 1.04-2.523 1.838-2.611 1.771-.111-.044-1.262-1.505-2.568-3.21-2.369-3.077-2.856-3.475-3.431-2.767ZM9.74 18.037c-.154.177-.22.532-.132.797.133.42.31.443 2.678.443 2.148 0 2.568-.067 2.679-.354.066-.2.044-.532-.089-.73-.332-.51-4.737-.643-5.135-.156ZM27.693 17.927c-.177.088-.266.42-.221.708.066.531.088.531 2.59.531 2.103 0 2.567-.066 2.744-.376.178-.266.156-.465-.044-.709-.243-.287-.752-.354-2.545-.354-1.218 0-2.369.089-2.524.2ZM20.366 24.567c-.133.244-.243 1.417-.243 2.612 0 2.435.22 3.033 1.128 2.9l.532-.066v-5.756l-.598-.066c-.398-.044-.664.066-.819.376ZM1.152 25.165c-.066.2-.044.531.089.73.199.288.708.355 3.165.355s2.966-.067 3.165-.354c.133-.2.155-.532.089-.73-.11-.31-.576-.355-3.254-.355s-3.143.044-3.254.354ZM.067 29.548c-.066.177-.088.51-.044.73.066.377.443.399 5.047.465 4.427.045 5.003.023 5.246-.31.2-.265.2-.487.045-.774-.2-.399-.576-.42-5.202-.42-4.118 0-5.003.043-5.092.309ZM36.858 31.208c-.487.554-.266 1.019.797 1.616l.885.51-4.161.11-4.184.11V34.884l4.206.11 4.206.111-.842.51c-.996.641-1.306 1.128-1.018 1.66.354.62.863.442 3.144-1.085 1.77-1.173 2.169-1.528 2.102-1.926-.044-.332-.752-.952-2.28-1.992-1.195-.82-2.258-1.483-2.324-1.483-.089 0-.31.177-.531.42Z"/></g></svg>
